X:10
T:GB/6a/10 Banks of Green Willow Version 2 of 2
%%VWML:GB-6a-10-0
F:http://www.vwml.org/record/GB/6a/10
C:Transcribed by Simon Furey and Lewis Jones
W:
W:Butterworth has a minim as his last note; this has been changed to a crochet.
L:1/8
Q:1/4=120
M:3/4
I:linebreak $
K:A
A>B | c2 A2 B2 | A>G E>F =G>A | F>E D>F A2 |$ A2 E2 (3EF=G | A3 =G E>D | B,>C D2 D>D | E2 B3 E |
FG A2 |]





